X:2324
T:Burt Feintuch's Trip to Cape Breton
R:reel
C:Brenda Stubbert, SOCAN
O:20th century Cape Breton
S:Tune of the Month, June 2001
A:http://www.capebretonisland.com/Music/Stubbert
N:Contacts ...
N:Recordings and bookings
N:..... <brenda@cranfordpub.com
N:Tune books and related recordings
N:..... Cranford Publications <http://www.cranfordpub.com>
H:Copyrights:Published by Stubbert Music
Z:Paul Stewart Cranford <psc@cranfordpub.com>
Q:300
L:1/8
M:C|
K:A
F|EA,CE A,BAF|=GEDG B,=G,G,F|EA,CE A,BAF|=GDB,D EA,A,F|
EA,CE A,BAF|=GEDG B,=G,G,B,|A,ECE DFEA|1GBEG AA,A,:|2GBEd cAA||
|:f|eAce AB=ca|=g=GBd GABf|eAce AB=ca|=gdBd eAAf|
eAce AB=ca|=g2 =GA B=cdf|ecdB e2 dB|=GDB,D EA,A,:|]


